X: 1981
T: When It's Showtime in the Valley
C:Arthur Bowley, (1913-2006), Marshall Mount, NSW
B: australian traditional tunes wiki
M:2/4
L:1/8
R: Three Step
Q: 1/4=100
K:G
V:1 
"D7"D2|"G"G2F2|E2DD/C/|DD EG|"D7"F4|A2G2|F2EE/^C/|EF E^C|"G"D4|
G2F2|E2D2|DG, B,D|"C"E4|G>G FE|"G"G2D2|"D7"FE DF|"G"G4||
"G"B>^A =A^G|G2D2|G>^G A>=G|"D7"F4|c>B A^G|A2D2|A>^G A>^A|"G"B4|
B>^A =A>G|G2D2|"G7"G>G AB|"C"c4|e>^d =d^c|"G"d2B2|"D7"Ac BA|"G"G4||
% abcbook-tune_id 6342d5be0a75f987b4f47097


% abcbook-boost 0
% abcbook-tablature 
% abcbook-transpose 
% abcbook-lastupdated 1665324492290
% abcbook-soundfonts 
% abcbook-repeats 1
% NFF Book 2018

